Yaru++/actions/16/image-resize.svg

<svg height="16" width="16" xmlns="http://www.w3.org/2000/svg">
  <g fill="#808080" transform="matrix(.70710678 .70710678 -.70710678 .70710678 7.712132 -3.018734)">
    <path d="m7 3h1v10h-1z"/>
    <path d="m5 12.516 5 .002c-.348.76-.737 1.535-1.166 2.323-.4221451.766074-.8670089 1.519408-1.334 2.259-.4590541-.742042-.8991959-1.495618-1.32-2.26-.4166628-.76226-.810176-1.536948-1.18-2.323z"/>
    <path d="m10 3.084-5-.002c.348-.76.737-1.535 1.166-2.323.422145-.766074.867009-1.519408 1.334-2.259.459054.742042.899196 1.495618 1.32 2.26.416663.76226.810176 1.536948 1.18 2.323z"/>
  </g>
</svg>

<svg xmlns="http://www.w3.org/2000/svg" width="16" height="16" version="1.1">
 <g fill="#808080" color="#000">
  <g>
   <g transform="rotate(45,7.5,7.8)">
    <path d="M 7,3 H 8 V 13 H 7 Z" font-weight="400" overflow="visible"/>
    <path d="m 5,12.516 5,0.002 C 9.652,13.278 9.263,14.053 8.834,14.841 8.4118549,15.607074 7.9669911,16.360408 7.5,17.1 7.0409459,16.357958 6.6008041,15.604382 6.18,14.84 5.7633372,14.07774 5.369824,13.303052 5,12.517 Z" overflow="visible"/>
    <path d="M 10,3.084 5,3.082 C 5.348,2.322 5.737,1.547 6.166,0.759 6.588145,-0.007074 7.033009,-0.760408 7.5,-1.5 7.959054,-0.757958 8.399196,-0.004382 8.82,0.76 9.236663,1.52226 9.630176,2.296948 10,3.083 Z" overflow="visible"/>
   </g>
  </g>
 </g>
</svg>
